!!!OTL: Vor Fastnacht
!!!ARE: Europa, Mitteleuropa, Deutschland
!!!SCT: A0489
!!!YEM: Copyright 1995, estate of Helmut Schaffrath.
**kern
*ICvox
*Ivox
!! Mixed meters:  4/2; 6/2
*M4/2
*k[b-]
*F:
{1f
=1
1f
1g
=2
1a
2b-
2a
=3
1cc
2a
2f
=4
1g
1f}
=5
{1b-
=6
*M6/2
2a
1dd
2cc
1b-
=7
*M4/2
1a
1r}
=8
{1f
=9
1f
1g
=10
1a
2b-
2a
=11
1cc
2a
2f
=12
1g
1f}
=13
{1b-
=14
*M6/2
2a
1dd
2cc
1b-
=15
*M4/2
1a
1r}
=16
{1cc
=17
2cc
2dd
2ee
2ff
=18
*M6/2
1dd
1cc
2a
2a
=19
1dd
2b-
2g
1a
=20
*M4/2
1g
2r}
{2g
=21
2a
2a
2b-
2b-
=22
1cc
2a
2a
=23
2dd
2dd
2ff
2ff
=24
1ee
1dd}
=25
{1cc
=26
1ff
2ee
2dd
=27
1cc
1dd
=28
2b-
2a
1g
=29
0f}
==
!!!AGN: Romanze, Ballade, Lied
!! Muenchner Cod. germ 1461 Bl. 54b.
!!!ONB: ESAC (Essen Associative Code) Database: ALTDEU
!!!AMT: irregular
!!!AIN: vox
!!!EED: Helmut Schaffrath
!!!EEV: 1.0
*-
